X:104 
T:Johnny Cope (hornpipe) 
B:CRE3.208 (Johnny Cope)
F:file ID: cre.3/104johnny_c
N:My impression of this tune (as played by Planxty) has always been that the last two parts go
from A minor into A modal, so I have made the c's sharp.  You can always
change them back to natural by removing the ^.
R:hornpipe
L:1/8
%Q:150
M:C
K:Am
"I"
dB| A2 (3.A.A.A A2Bd|e^fed A<BAG|DGG2 G3A|BAGB dBGB|
(3.A.A.A GB A2 (3Bcd|e^fed B3d|eg^fa gedB|B2A2A2:|
"II"
|:AB| c2cd c2G2|c3e gedB|cBAB ecdB|B2eB dBGB|
cBcd c2G2|c3e gedg|eaaf (3e^fg ed|1 B2AB A2:|2 B2AB A3||
"III"
|:B|c2cB ABAG|ABcd ecdc|BG~G2 DG~G2|cdec dBGB|
cBcB ABAG|ABcd ecd2|(3e^fg fa gedc|1 B2AB A3:|2 B2AB A2||
"IV"
|:(3Bcd|e2ag a2ga|bga^f gedB|d3e g3a|bga^f gedg|
eaag eaa2|bga^f gedB|d2 (3e^fg fded|(3BcB A2A2:|
"V"
|:(3B^cd|e2eg ^fedf|eaae ^fedB|d2 (3.d.d.d dBAB|\
d2^fd ed (3B^cd|
e2eg ^fedf|eaae ^fedB|A2 (3B^cd ed^fd|B2A2A2:|
"VI"
|:(3e^fg|a2e2 e^fge|a2ed e2ag|^f2d2 d3e|^f2d^c defd|
a2e2 ^fedf|eaae ^fedB|A2 (3B^cd ed^fd|B2A2A2:|

%%%

